X: 11
T: Chief O'Neill's Favourite
Z: Bob Lamparter
S: https://thesession.org/tunes/13#setting46314
R: hornpipe
M: 4/4
L: 1/8
K: Dmaj
V:1
de|:"D"fe fg af ge|fd ec dc AG|((3FAF) DE FG AB|"C"((3=cBA) dc "A"A2 de|
"D"fe fg af ge|fd ec dc AG|"D"FD AF "G"GB AG|1 "D"((3FAF) "G"D2 "D"D2 de:|2 "D"((3FAF) "G"D2 "D"D2 DE||
|:"F"=F3D FG AB|"F"((3=cBA) dB "C"cB AG|"D"Ad de fd ed|"Am"((3=cBA) dc A2 de|
"D"fe fg af ge|fd ec dc AG|"D"FD AF "G"GB AG|1 "D"((3FAF) "G"D2 "D"D2 DE:|2 "D"((3FAF) "G"D2 "D"D2||
V:2
FG|:AG AB dA BG|AF GE FE FE|((3DFD) A,B, DE FG|((3ED=C) GE E2 FG|
AG AB dA BG|AF GE FE FE|DA, FD DG FE|1 ((3DFD) B,2 D2 FG:|2 ((3DFD) B,2 A,2 A,A,||
|:=C3C CE =FG|((3AG=F) AG GG FE|^FA Ac dA cB|((3AGE) BA E2 FG|
AG AB dA BG|AF GE FE FE|DA, FD DG FE|1 ((3DFD) B,2 A,2 A,A,:|2 ((3DFD) B,2 D2||

